X:2
T:When the Saints Go Marching In
C:Traditional spiritual, PD (pre-1900)
M:4/4
L:1/4
Q:1/4=112
K:C
c' e' f' g'2 | c' e' f' g'2 | c' e' f' g' e' | c' e' d'2 |
c' e' f' g'2 | c' e' f' g'2 | c' e' g' e' c' | d'4 |
e'2 e'/ d'/ e' | c' e' g'2 | g' e' g' e'2 | c' d'2 c' |
c' e' f' g'2 | c' e' f' g' a' | g' e' c' d' | c'4 |
